svg/fluentui-system-icons/ic_fluent_plug_connected_20_filled.svg

<svg width="20" height="20" viewBox="0 0 20 20" fill="none" xmlns="http://www.w3.org/2000/svg">
<path d="M17.7803 3.28033C18.0732 2.98744 18.0732 2.51256 17.7803 2.21967C17.4874 1.92678 17.0126 1.92678 16.7197 2.21967L14.2739 4.66547C12.7027 3.59131 10.5409 3.75164 9.14607 5.14646L8.84607 5.44646C8.26421 6.02832 8.26421 6.97171 8.84607 7.55357L12.4461 11.1536C13.0279 11.7354 13.9713 11.7354 14.5532 11.1536L14.8532 10.8536C16.2479 9.45888 16.4083 7.29731 15.3345 5.7262L17.7803 3.28033ZM7.55393 8.84643C6.97207 8.26457 6.02869 8.26457 5.44682 8.84643L5.14683 9.14643C3.75213 10.5411 3.5917 12.7027 4.66554 14.2738L2.21967 16.7197C1.92678 17.0126 1.92678 17.4874 2.21967 17.7803C2.51256 18.0732 2.98744 18.0732 3.28033 17.7803L5.72613 15.3345C7.29728 16.4087 9.45911 16.2484 10.8539 14.8535L11.1539 14.5535C11.7358 13.9717 11.7358 13.0283 11.1539 12.4464L7.55393 8.84643Z" fill="#212121"/>
</svg>

<svg xmlns="http://www.w3.org/2000/svg" width="20" height="20"><path d="M17.78 3.28a.75.75 0 0 0-1.06-1.06l-2.446 2.445a4.037 4.037 0 0 0-5.128.481l-.3.3a1.49 1.49 0 0 0 0 2.108l3.6 3.6a1.49 1.49 0 0 0 2.107 0l.3-.3a4.037 4.037 0 0 0 .482-5.128L17.78 3.28ZM7.554 8.846a1.49 1.49 0 0 0-2.107 0l-.3.3a4.037 4.037 0 0 0-.481 5.128L2.22 16.72a.75.75 0 1 0 1.06 1.06l2.446-2.446a4.037 4.037 0 0 0 5.128-.48l.3-.3a1.49 1.49 0 0 0 0-2.108l-3.6-3.6Z"/></svg>
